;FLAVOR:Marlin
;TIME:2028
;Filament used: 1.06537m
;Layer height: 0.2
;MINX:128.84
;MINY:98.696
;MINZ:0.2
;MAXX:171.16
;MAXY:201.304
;MAXZ:13.2
;Generated with Cura_SteamEngine 5.4.0
M140 S60


; Pre-Processed for Cancel-Object support by preprocess_cancellation v0.2.0
; 1 known objects
EXCLUDE_OBJECT_DEFINE NAME=lightlock_stl CENTER=150.370,144.464 POLYGON=[[129.64,99.496],[129.64,200.504],[170.36,200.504],[170.36,99.496]]
M105
M190 S60
M104 S200
M105
M109 S200
M82 ;absolute extrusion mode
START_PRINT
G92 E0
G92 E0
G1 F1500 E-6.5
;LAYER_COUNT:66
;LAYER:0
M107
G0 F6000 X133.272 Y106.91 Z0.2
;TYPE:SKIRT
G1 F1500 E0
G1 F1200 X133.926 Y106.115 E0.03424
G1 X134.404 Y105.564 E0.0585
G1 X135.213 Y104.727 E0.09722
G1 X136.016 Y103.991 E0.13345
G1 X136.582 Y103.5 E0.15837
G1 X137.497 Y102.789 E0.19691
G1 X138.108 Y102.366 E0.22163
G1 X138.952 Y101.813 E0.25519
G1 X139.937 Y101.245 E0.293
G1 X140.816 Y100.803 E0.32573
G1 X141.57 Y100.449 E0.35343
G1 X142.632 Y100.02 E0.39153
G1 X143.598 Y99.696 E0.42542
G1 X144.35 Y99.465 E0.45158
G1 X145.461 Y99.188 E0.48966
G1 X146.411 Y99.009 E0.52182
G1 X147.227 Y98.878 E0.54931
G1 X148.401 Y98.755 E0.58857
G1 X149.112 Y98.721 E0.61224
G1 X150.179 Y98.696 E0.64774
G1 X151.327 Y98.737 E0.68595
G1 X152.128 Y98.811 E0.7127
G1 X153.13 Y98.929 E0.74626
G1 X154.234 Y99.124 E0.78355
G1 X155.185 Y99.348 E0.81604
G1 X155.952 Y99.551 E0.84243
G1 X157.109 Y99.928 E0.8829
G1 X158.117 Y100.323 E0.91891
G1 X158.799 Y100.614 E0.94357
G1 X159.811 Y101.109 E0.98104
G1 X160.614 Y101.561 E1.01169
G1 X161.308 Y101.974 E1.03855
G1 X162.317 Y102.654 E1.07902
G1 X163.093 Y103.248 E1.11153
G1 X163.715 Y103.748 E1.13807
G1 X164.598 Y104.544 E1.17761
G1 X165.327 Y105.284 E1.21216
G1 X165.789 Y105.776 E1.23461
G1 X166.571 Y106.708 E1.27507
G1 X167.176 Y107.521 E1.30878
G1 X167.588 Y108.104 E1.33252
G1 X168.244 Y109.156 E1.37376
G1 X168.707 Y110.004 E1.40589
G1 X169.054 Y110.677 E1.43108
G1 X169.56 Y111.816 E1.47253
G1 X169.924 Y112.784 E1.50693
G1 X170.152 Y113.444 E1.53015
G1 X170.47 Y114.552 E1.56849
G1 X170.686 Y115.512 E1.60122
G1 X170.847 Y116.328 E1.62888
G1 X171.01 Y117.477 E1.66748
G1 X171.092 Y118.51 E1.70195
G1 X171.135 Y119.314 E1.72873
G1 X171.131 Y120.492 E1.76791
G1 X171.073 Y121.461 E1.80019
G1 X171.017 Y122.13 E1.82252
G1 X170.852 Y123.321 E1.86251
G1 X170.617 Y124.513 E1.90292
G1 X170.13 Y127.156 E1.99231
G1 X169.752 Y129.598 E2.0745
G1 X169.431 Y132.125 E2.15922
G1 X169.183 Y134.66 E2.24394
G1 X169.013 Y137.121 E2.32599
G1 X168.909 Y139.65 E2.41017
G1 X168.877 Y142.162 E2.49373
G1 X168.917 Y144.686 E2.57769
G1 X169.028 Y147.215 E2.66188
G1 X169.205 Y149.678 E2.74401
G1 X169.459 Y152.196 E2.82819
G1 X169.784 Y154.714 E2.91263
G1 X170.176 Y157.191 E2.99604
G1 X170.644 Y159.688 E3.08054
G1 X170.844 Y160.676 E3.11407
G1 X170.955 Y161.321 E3.13584
G1 X171.061 Y162.075 E3.16116
G1 X171.148 Y163.292 E3.20174
G1 X171.16 Y164.194 E3.23174
G1 X171.155 Y179.845 E3.7523
G1 X171.143 Y180.364 E3.76957
G1 X171.079 Y181.652 E3.81246
G1 X170.995 Y182.654 E3.8459
G1 X170.831 Y183.771 E3.88345
G1 X170.636 Y184.725 E3.91584
G1 X170.474 Y185.434 E3.94003
G1 X170.17 Y186.499 E3.97686
G1 X169.804 Y187.544 E4.01369
G1 X169.54 Y188.235 E4.03829
G1 X169.051 Y189.329 E4.07815
G1 X168.599 Y190.198 E4.11073
G1 X168.216 Y190.891 E4.13706
G1 X167.598 Y191.879 E4.17582
G1 X166.993 Y192.73 E4.21055
G1 X166.534 Y193.34 E4.23594
G1 X165.793 Y194.219 E4.27418
G1 X165.08 Y194.971 E4.30865
G1 X164.575 Y195.478 E4.33245
G1 X163.708 Y196.258 E4.37124
G1 X162.851 Y196.941 E4.40769
G1 X162.258 Y197.388 E4.43238
G1 X161.272 Y198.049 E4.47187
G1 X160.404 Y198.559 E4.50535
G1 X159.775 Y198.91 E4.52931
G1 X158.71 Y199.428 E4.5687
G1 X158.015 Y199.719 E4.59376
G1 X157 Y200.112 E4.62996
G1 X155.934 Y200.455 E4.66721
G1 X154.927 Y200.715 E4.7018
G1 X154.238 Y200.876 E4.72533
G1 X153.085 Y201.078 E4.76426
G1 X152.019 Y201.2 E4.79995
G1 X151.315 Y201.264 E4.82346
G1 X150.153 Y201.304 E4.86213
G1 X149.14 Y201.28 E4.89583
G1 X148.36 Y201.241 E4.92181
G1 X147.19 Y201.117 E4.96094
G1 X146.158 Y200.946 E4.99573
G1 X145.431 Y200.805 E5.02037
G1 X144.281 Y200.517 E5.0598
G1 X143.341 Y200.221 E5.09257
G1 X142.669 Y199.993 E5.11618
G1 X141.569 Y199.551 E5.15561
G1 X140.593 Y199.089 E5.19152
G1 X139.939 Y198.757 E5.21591
G1 X138.889 Y198.149 E5.25627
G1 X138.014 Y197.57 E5.29117
G1 X137.447 Y197.174 E5.31417
G1 X136.515 Y196.445 E5.35352
G1 X135.748 Y195.767 E5.38757
G1 X135.183 Y195.243 E5.4132
G1 X134.377 Y194.405 E5.45188
G1 X133.718 Y193.637 E5.48553
G1 X133.225 Y193.031 E5.51152
G1 X132.554 Y192.106 E5.54952
G1 X131.985 Y191.214 E5.58471
G1 X131.588 Y190.555 E5.6103
G1 X131.028 Y189.491 E5.65029
G1 X130.63 Y188.616 E5.68227
G1 X130.335 Y187.925 E5.70726
G1 X129.941 Y186.842 E5.74559
G1 X129.639 Y185.828 E5.78078
G1 X129.449 Y185.122 E5.80509
G1 X129.208 Y183.984 E5.84378
G1 X129.049 Y182.942 E5.87884
G1 X128.948 Y182.124 E5.90625
G1 X128.869 Y180.994 E5.94393
G1 X128.84 Y179.274 E6.00115
G1 X128.84 Y120.678 E7.95006
G1 X128.865 Y119.16 E8.00055
G1 X128.888 Y118.581 E8.01982
G1 X128.96 Y117.763 E8.04714
G1 X129.091 Y116.761 E8.08075
G1 X129.21 Y115.995 E8.10653
G1 X129.463 Y114.808 E8.1469
G1 X129.638 Y114.172 E8.16884
G1 X129.946 Y113.148 E8.2044
G1 X130.333 Y112.077 E8.24228
G1 X130.697 Y111.23 E8.27294
G1 X131.039 Y110.484 E8.30024
G1 X131.64 Y109.355 E8.34278
G1 X132.191 Y108.454 E8.3779
G1 X132.561 Y107.883 E8.40053
G1 X133.272 Y106.91 E8.44061
G0 F6000 X133.581 Y107.164
G1 F1200 X134.228 Y106.377 E8.4745
G1 X134.692 Y105.842 E8.49805
G1 X135.484 Y105.022 E8.53597
G1 X136.278 Y104.293 E8.57182
G1 X136.827 Y103.816 E8.59601
G1 X137.725 Y103.118 E8.63384
G1 X138.328 Y102.7 E8.65824
G1 X139.152 Y102.159 E8.69103
G1 X140.117 Y101.602 E8.72809
G1 X140.986 Y101.165 E8.76044
G1 X141.72 Y100.82 E8.78742
G1 X142.782 Y100.391 E8.82551
G1 X143.716 Y100.078 E8.85827
G1 X144.447 Y99.853 E8.88371
G1 X145.535 Y99.581 E8.92101
G1 X146.475 Y99.404 E8.95283
G1 X147.269 Y99.276 E8.97958
G1 X148.42 Y99.155 E9.01807
G1 X149.122 Y99.121 E9.04145
G1 X150.165 Y99.096 E9.07615
G1 X151.313 Y99.137 E9.11435
G1 X152.081 Y99.208 E9.14001
G1 X153.061 Y99.323 E9.17282
G1 X154.142 Y99.513 E9.20933
G1 X155.083 Y99.735 E9.24149
G1 X155.85 Y99.938 E9.26788
G1 X156.963 Y100.3 E9.3068
G1 X157.96 Y100.691 E9.34242
G1 X158.623 Y100.973 E9.36639
G1 X159.615 Y101.458 E9.40311
G1 X160.409 Y101.905 E9.43342
G1 X161.103 Y102.318 E9.46028
G1 X162.074 Y102.972 E9.49922
G1 X162.843 Y103.56 E9.53141
G1 X163.447 Y104.045 E9.55718
G1 X164.313 Y104.825 E9.59594
G1 X165.035 Y105.558 E9.63016
G1 X165.497 Y106.05 E9.65261
G1 X166.25 Y106.947 E9.69156
G1 X166.849 Y107.752 E9.72494
G1 X167.261 Y108.335 E9.74868
G1 X167.893 Y109.347 E9.78836
G1 X168.351 Y110.187 E9.82019
G1 X168.698 Y110.86 E9.84537
G1 X169.186 Y111.957 E9.8853
G1 X169.546 Y112.915 E9.91934
G1 X169.774 Y113.575 E9.94257
G1 X170.08 Y114.64 E9.97942
G1 X170.294 Y115.59 E10.01181
G1 X170.451 Y116.384 E10.03873
G1 X170.611 Y117.509 E10.07653
G1 X170.693 Y118.531 E10.11063
G1 X170.735 Y119.313 E10.13667
G1 X170.732 Y120.468 E10.17509
G1 X170.674 Y121.428 E10.20708
G1 X170.618 Y122.097 E10.22941
G1 X170.459 Y123.244 E10.26792
G1 X170.225 Y124.436 E10.30832
G1 X169.737 Y127.084 E10.39788
G1 X169.355 Y129.548 E10.48081
G1 X169.034 Y132.075 E10.56553
G1 X168.785 Y134.621 E10.65062
G1 X168.613 Y137.105 E10.73343
G1 X168.509 Y139.634 E10.81762
G1 X168.477 Y142.157 E10.90154
G1 X168.517 Y144.704 E10.98627
G1 X168.628 Y147.233 E11.07046
G1 X168.807 Y149.718 E11.15333
G1 X169.062 Y152.247 E11.23787
G1 X169.389 Y154.777 E11.32272
G1 X169.783 Y157.265 E11.4065
G1 X170.252 Y159.767 E11.49117
G1 X170.45 Y160.744 E11.52432
G1 X170.559 Y161.377 E11.54569
G1 X170.662 Y162.104 E11.57011
G1 X170.748 Y163.297 E11.60989
G1 X170.76 Y164.194 E11.63973
G1 X170.755 Y179.836 E12.15998
G1 X170.743 Y180.344 E12.17688
G1 X170.68 Y181.619 E12.21934
G1 X170.599 Y182.596 E12.25195
G1 X170.439 Y183.691 E12.28875
G1 X170.246 Y184.636 E12.32083
G1 X170.089 Y185.324 E12.3443
G1 X169.785 Y186.389 E12.38114
G1 X169.43 Y187.401 E12.41681
G1 X169.166 Y188.092 E12.44141
G1 X168.696 Y189.145 E12.47977
G1 X168.249 Y190.005 E12.512
G1 X167.877 Y190.679 E12.53761
G1 X167.272 Y191.647 E12.57558
G1 X166.673 Y192.49 E12.60997
G1 X166.228 Y193.082 E12.6346
G1 X165.502 Y193.944 E12.67209
G1 X164.797 Y194.689 E12.7062
G1 X164.307 Y195.181 E12.7293
G1 X163.459 Y195.945 E12.76726
G1 X162.61 Y196.622 E12.80338
G1 X162.035 Y197.056 E12.82734
G1 X161.069 Y197.704 E12.86603
G1 X160.209 Y198.21 E12.89922
G1 X159.6 Y198.55 E12.92241
G1 X158.555 Y199.059 E12.96107
G1 X157.871 Y199.346 E12.98575
G1 X156.877 Y199.731 E13.0212
G1 X155.811 Y200.074 E13.05844
G1 X154.836 Y200.325 E13.09193
G1 X154.147 Y200.486 E13.11546
G1 X153.016 Y200.684 E13.15365
G1 X151.983 Y200.802 E13.18823
G1 X151.301 Y200.864 E13.21101
G1 X150.162 Y200.904 E13.24892
G1 X149.16 Y200.881 E13.28225
G1 X148.402 Y200.843 E13.3075
G1 X147.255 Y200.722 E13.34586
G1 X146.234 Y200.553 E13.38028
G1 X145.528 Y200.417 E13.40419
G1 X144.401 Y200.135 E13.44283
G1 X143.47 Y199.842 E13.47529
G1 X142.798 Y199.614 E13.4989
G1 X141.74 Y199.189 E13.53682
G1 X140.774 Y198.732 E13.57236
G1 X140.12 Y198.4 E13.59676
G1 X139.11 Y197.815 E13.63558
G1 X138.243 Y197.242 E13.67014
G1 X137.693 Y196.859 E13.69243
G1 X136.78 Y196.145 E13.73098
G1 X136.02 Y195.474 E13.7647
G1 X135.471 Y194.965 E13.7896
G1 X134.68 Y194.144 E13.82752
G1 X134.028 Y193.385 E13.8608
G1 X133.549 Y192.796 E13.88605
G1 X132.878 Y191.871 E13.92406
G1 X132.327 Y191.007 E13.95814
G1 X131.942 Y190.369 E13.98293
G1 X131.392 Y189.325 E14.02218
G1 X130.998 Y188.459 E14.05382
G1 X130.711 Y187.788 E14.07809
G1 X130.317 Y186.705 E14.11642
G1 X130.025 Y185.724 E14.15047
G1 X129.84 Y185.039 E14.17407
G1 X129.603 Y183.924 E14.21198
G1 X129.446 Y182.893 E14.24667
G1 X129.347 Y182.096 E14.27338
G1 X129.269 Y180.987 E14.31035
G1 X129.24 Y179.267 E14.36757
G1 X129.24 Y120.685 E16.31602
G1 X129.265 Y119.176 E16.36621
G1 X129.288 Y118.597 E16.38548
G1 X129.357 Y117.815 E16.41159
G1 X129.486 Y116.822 E16.4449
G1 X129.601 Y116.078 E16.46994
G1 X129.849 Y114.914 E16.50952
G1 X130.021 Y114.287 E16.53115
G1 X130.322 Y113.284 E16.56598
G1 X130.701 Y112.235 E16.60307
G1 X131.061 Y111.397 E16.63341
G1 X131.403 Y110.651 E16.6607
G1 X131.981 Y109.564 E16.70165
G1 X132.527 Y108.672 E16.73644
G1 X132.897 Y108.101 E16.75907
G1 X133.581 Y107.164 E16.79765
G0 F6000 X133.89 Y107.418
G1 F1200 X134.531 Y106.639 E16.83121
G1 X134.98 Y106.12 E16.85403
G1 X135.755 Y105.317 E16.89115
G1 X136.541 Y104.595 E16.92665
G1 X137.073 Y104.132 E16.9501
G1 X137.953 Y103.447 E16.98719
G1 X138.548 Y103.034 E17.01128
G1 X139.352 Y102.505 E17.04329
G1 X140.297 Y101.959 E17.07959
G1 X141.156 Y101.527 E17.11157
G1 X141.87 Y101.191 E17.13782
G1 X142.932 Y100.762 E17.17592
G1 X143.834 Y100.46 E17.20755
G1 X144.544 Y100.241 E17.23227
G1 X145.609 Y99.974 E17.26878
G1 X146.539 Y99.799 E17.30026
G1 X147.311 Y99.674 E17.32627
G1 X148.44 Y99.555 E17.36403
G1 X149.132 Y99.521 E17.38707
G1 X150.151 Y99.496 E17.42097
G1 X151.299 Y99.537 E17.45918
G1 X152.035 Y99.605 E17.48377
G1 X152.992 Y99.717 E17.51581
G1 X154.05 Y99.902 E17.55154
G1 X154.981 Y100.122 E17.58335
G1 X155.748 Y100.325 E17.60974
G1 X156.817 Y100.672 E17.64712
G1 X157.804 Y101.059 E17.68239
G1 X158.447 Y101.332 E17.70562
G1 X159.419 Y101.807 E17.7416
G1 X160.205 Y102.249 E17.77159
G1 X160.88 Y102.65 E17.79771
G1 X161.831 Y103.29 E17.83583
G1 X162.593 Y103.872 E17.86772
G1 X163.179 Y104.342 E17.89271
G1 X164.045 Y105.122 E17.93147
G1 X164.743 Y105.832 E17.96459
G1 X165.205 Y106.324 E17.98704
G1 X165.929 Y107.186 E18.02448
G1 X166.522 Y107.983 E18.05752
G1 X166.934 Y108.566 E18.08126
G1 X167.542 Y109.538 E18.1194
G1 X167.995 Y110.37 E18.1509
G1 X168.342 Y111.043 E18.17609
G1 X168.812 Y112.098 E18.2145
G1 X169.168 Y113.046 E18.24818
G1 X169.39 Y113.686 E18.27071
G1 X169.69 Y114.728 E18.30678
G1 X169.902 Y115.668 E18.33883
G1 X170.055 Y116.44 E18.365
G1 X170.212 Y117.541 E18.40199
G1 X170.294 Y118.553 E18.43576
G1 X170.335 Y119.312 E18.46104
G1 X170.333 Y120.444 E18.4987
G1 X170.275 Y121.395 E18.53038
G1 X170.219 Y122.064 E18.55271
G1 X170.066 Y123.167 E18.58975
G1 X169.833 Y124.359 E18.63015
G1 X169.344 Y127.011 E18.71984
G1 X168.958 Y129.498 E18.80355
G1 X168.637 Y132.025 E18.88827
G1 X168.387 Y134.582 E18.97372
G1 X168.213 Y137.089 E19.05731
G1 X168.109 Y139.618 E19.14149
G1 X168.077 Y142.152 E19.22578
G1 X168.117 Y144.722 E19.31127
G1 X168.228 Y147.251 E19.39547
G1 X168.409 Y149.758 E19.47907
G1 X168.665 Y152.298 E19.56397
G1 X168.994 Y154.84 E19.64923
G1 X169.39 Y157.339 E19.73338
G1 X169.86 Y159.847 E19.81825
G1 X170.056 Y160.812 E19.851
G1 X170.163 Y161.434 E19.87199
G1 X170.263 Y162.133 E19.89548
G1 X170.348 Y163.302 E19.93446
G1 X170.36 Y164.194 E19.96413
G1 X170.355 Y179.826 E20.48406
G1 X170.343 Y180.324 E20.50062
G1 X170.281 Y181.586 E20.54265
G1 X170.203 Y182.538 E20.57442
G1 X170.047 Y183.611 E20.61048
G1 X169.856 Y184.547 E20.64225
G1 X169.704 Y185.214 E20.66501
G1 X169.4 Y186.279 E20.70184
G1 X169.056 Y187.259 E20.73639
G1 X168.801 Y187.929 E20.76023
G1 X168.341 Y188.961 E20.79781
G1 X167.899 Y189.812 E20.82971
G1 X167.538 Y190.467 E20.85458
G1 X166.946 Y191.415 E20.89176
G1 X166.353 Y192.25 E20.92582
G1 X165.922 Y192.824 E20.94969
G1 X165.196 Y193.686 E20.98718
G1 X164.513 Y194.407 E21.02021
G1 X164.039 Y194.884 E21.04258
G1 X163.209 Y195.632 E21.07974
G1 X162.369 Y196.303 E21.1155
G1 X161.812 Y196.724 E21.13872
G1 X160.866 Y197.359 E21.17661
G1 X160.014 Y197.861 E21.2095
G1 X159.425 Y198.19 E21.23194
G1 X158.4 Y198.69 E21.26988
G1 X157.726 Y198.973 E21.29419
G1 X156.754 Y199.35 E21.32886
G1 X155.688 Y199.693 E21.36611
G1 X154.745 Y199.936 E21.3985
G1 X154.078 Y200.092 E21.42128
G1 X152.947 Y200.29 E21.45947
G1 X151.947 Y200.404 E21.49295
G1 X151.287 Y200.464 E21.51499
G1 X150.171 Y200.504 E21.55213
G1 X149.18 Y200.481 E21.5851
G1 X148.444 Y200.445 E21.60961
G1 X147.32 Y200.327 E21.6472
G1 X146.309 Y200.16 E21.68128
G1 X145.625 Y200.029 E21.70444
G1 X144.521 Y199.753 E21.74229
G1 X143.598 Y199.463 E21.77447
G1 X142.947 Y199.243 E21.79733
G1 X141.889 Y198.818 E21.83525
G1 X140.955 Y198.375 E21.86963
G1 X140.301 Y198.043 E21.89403
G1 X139.33 Y197.481 E21.93134
G1 X138.471 Y196.914 E21.96557
G1 X137.939 Y196.544 E21.98713
G1 X137.045 Y195.845 E22.02487
G1 X136.292 Y195.181 E22.05826
G1 X135.759 Y194.687 E22.08243
G1 X134.983 Y193.883 E22.1196
G1 X134.338 Y193.132 E22.15253
G1 X133.873 Y192.561 E22.17702
G1 X133.202 Y191.636 E22.21503
G1 X132.669 Y190.8 E22.248
G1 X132.296 Y190.182 E22.27201
G1 X131.756 Y189.159 E22.31048
G1 X131.366 Y188.301 E22.34183
G1 X131.087 Y187.651 E22.36536
G1 X130.693 Y186.568 E22.40369
G1 X130.411 Y185.619 E22.43662
G1 X130.231 Y184.956 E22.45947
G1 X129.998 Y183.864 E22.4966
G1 X129.843 Y182.843 E22.53095
G1 X129.746 Y182.068 E22.55693
G1 X129.669 Y180.98 E22.59321
G1 X129.64 Y179.26 E22.65042
G1 X129.64 Y120.692 E24.5984
G1 X129.665 Y119.192 E24.6483
G1 X129.688 Y118.613 E24.66757
G1 X129.754 Y117.866 E24.69251
G1 X129.881 Y116.883 E24.72548
G1 X129.992 Y116.161 E24.74978
G1 X130.235 Y115.02 E24.78858
G1 X130.404 Y114.402 E24.80989
G1 X130.698 Y113.42 E24.84398
G1 X131.069 Y112.393 E24.8803
G1 X131.425 Y111.564 E24.91031
G1 X131.767 Y110.818 E24.9376
G1 X132.322 Y109.773 E24.97696
G1 X132.863 Y108.89 E25.0114
G1 X133.233 Y108.319 E25.03403
G1 X133.89 Y107.418 E25.07112
G1 F1500 E18.57112
;MESH:lightlock.stl
EXCLUDE_OBJECT_START NAME=lightlock_stl
G0 F6000 X147.444 Y118.991
G0 X150.001 Y122.351
;TYPE:WALL-INNER
G1 F1500 E25.07112
G1 F1200 X149.221 Y122.227 E25.09739
G1 X148.524 Y121.871 E25.12342
G1 X147.964 Y121.31 E25.14978
G1 X147.608 Y120.599 E25.17623
G1 X147.489 Y119.855 E25.20129
G1 X147.607 Y119.072 E25.22762
G1 X147.963 Y118.369 E25.25383
G1 X148.524 Y117.803 E25.28034
G1 X149.231 Y117.446 E25.30668
G1 X150.011 Y117.325 E25.33294
G1 X150.765 Y117.446 E25.35833
G1 X151.476 Y117.804 E25.38481
G1 X152.038 Y118.371 E25.41136
G1 X152.384 Y119.05 E25.43671
G1 X152.513 Y119.841 E25.46337
G1 X152.385 Y120.625 E25.48979
