; HEADER_BLOCK_START
; generated by OrcaSlicer 1.7.0 on 2023-10-29 at 17:38:31
; total layer number: 0
; HEADER_BLOCK_END

; THUMBNAIL_BLOCK_START
; THUMBNAIL_BLOCK_END

; external perimeters extrusion width = 0.40mm
; perimeters extrusion width = 0.45mm
; infill extrusion width = 0.45mm
; solid infill extrusion width = 0.40mm
; top infill extrusion width = 0.40mm
; first layer extrusion width = 0.50mm

; EXECUTABLE_BLOCK_START
EXCLUDE_OBJECT_DEFINE NAME=Orca-PA-Calibration-Test CENTER=0,0 POLYGON=[[5,5],[295,5],[295,295],[5,295],[5,5]]
M73 P0 R5
;TYPE:Custom
Start_print
G90
G21
M83 ; use relative distances for extrusion
; filament start gcode
SET_VELOCITY_LIMIT ACCEL=500 ACCEL_TO_DECEL=250
G1 Z.2 F18000
G1 E-.9 F1800
G1 X98 Y223.5 F18000
M73 P0 R4
G1 E.9 F1800
G1 F1200
G1 X98 Y73 E8.91686
SET_PRESSURE_ADVANCE ADVANCE=0; Override pressure advance value
M73 P3 R4
G1 E-.9 F1800
G1 X100 Y62.5 F18000
G1 E.9 F1800
G1 F1200
G1 X120 Y62.5 E.92643
G1 F6420
G1 X160 Y62.5 E1.85285
G1 F1200
G1 X180 Y62.5 E.92643
SET_PRESSURE_ADVANCE ADVANCE=0.002; Override pressure advance value
M73 P4 R4
G1 E-.9 F1800
G1 X100 Y66 F18000
G1 E.9 F1800
G1 F1200
G1 X120 Y66 E.92643
G1 F6420
G1 X160 Y66 E1.85285
M73 P5 R4
G1 F1200
G1 X180 Y66 E.92643
SET_PRESSURE_ADVANCE ADVANCE=0.004; Override pressure advance value
G1 E-.9 F1800
G1 X100 Y69.5 F18000
G1 E.9 F1800
G1 F1200
G1 X120 Y69.5 E.92643
M73 P6 R4
G1 F6420
G1 X160 Y69.5 E1.85285
G1 F1200
G1 X180 Y69.5 E.92643
SET_PRESSURE_ADVANCE ADVANCE=0.006; Override pressure advance value
G1 E-.9 F1800
G1 X100 Y73 F18000
M73 P7 R4
G1 E.9 F1800
G1 F1200
G1 X120 Y73 E.92643
G1 F6420
G1 X160 Y73 E1.85285
G1 F1200
G1 X180 Y73 E.92643
SET_PRESSURE_ADVANCE ADVANCE=0.008; Override pressure advance value
G1 E-.9 F1800
G1 X100 Y76.5 F18000
M73 P8 R4
G1 E.9 F1800
G1 F1200
G1 X120 Y76.5 E.92643
G1 F6420
G1 X160 Y76.5 E1.85285
G1 F1200
G1 X180 Y76.5 E.92643
SET_PRESSURE_ADVANCE ADVANCE=0.01; Override pressure advance value
M73 P9 R4
G1 E-.9 F1800
G1 X100 Y80 F18000
G1 E.9 F1800
G1 F1200
G1 X120 Y80 E.92643
G1 F6420
G1 X160 Y80 E1.85285
M73 P10 R4
G1 F1200
G1 X180 Y80 E.92643
SET_PRESSURE_ADVANCE ADVANCE=0.012; Override pressure advance value
G1 E-.9 F1800
G1 X100 Y83.5 F18000
G1 E.9 F1800
G1 F1200
G1 X120 Y83.5 E.92643
M73 P11 R4
G1 F6420
G1 X160 Y83.5 E1.85285
G1 F1200
G1 X180 Y83.5 E.92643
SET_PRESSURE_ADVANCE ADVANCE=0.014; Override pressure advance value
G1 E-.9 F1800
G1 X100 Y87 F18000
G1 E.9 F1800
G1 F1200
G1 X120 Y87 E.92643
M73 P12 R4
G1 F6420
G1 X160 Y87 E1.85285
G1 F1200
G1 X180 Y87 E.92643
SET_PRESSURE_ADVANCE ADVANCE=0.016; Override pressure advance value
G1 E-.9 F1800
G1 X100 Y90.5 F18000
M73 P13 R4
G1 E.9 F1800
G1 F1200
G1 X120 Y90.5 E.92643
G1 F6420
G1 X160 Y90.5 E1.85285
G1 F1200
G1 X180 Y90.5 E.92643
SET_PRESSURE_ADVANCE ADVANCE=0.018; Override pressure advance value
M73 P14 R4
G1 E-.9 F1800
G1 X100 Y94 F18000
G1 E.9 F1800
G1 F1200
G1 X120 Y94 E.92643
G1 F6420
G1 X160 Y94 E1.85285
G1 F1200
G1 X180 Y94 E.92643
SET_PRESSURE_ADVANCE ADVANCE=0.02; Override pressure advance value
M73 P15 R4
G1 E-.9 F1800
G1 X100 Y97.5 F18000
G1 E.9 F1800
G1 F1200
G1 X120 Y97.5 E.92643
G1 F6420
G1 X160 Y97.5 E1.85285
M73 P16 R4
G1 F1200
G1 X180 Y97.5 E.92643
SET_PRESSURE_ADVANCE ADVANCE=0.022; Override pressure advance value
G1 E-.9 F1800
G1 X100 Y101 F18000
G1 E.9 F1800
G1 F1200
G1 X120 Y101 E.92643
M73 P17 R4
G1 F6420
G1 X160 Y101 E1.85285
G1 F1200
G1 X180 Y101 E.92643
SET_PRESSURE_ADVANCE ADVANCE=0.024; Override pressure advance value
G1 E-.9 F1800
G1 X100 Y104.5 F18000
M73 P18 R4
G1 E.9 F1800
G1 F1200
G1 X120 Y104.5 E.92643
G1 F6420
G1 X160 Y104.5 E1.85285
G1 F1200
G1 X180 Y104.5 E.92643
SET_PRESSURE_ADVANCE ADVANCE=0.026; Override pressure advance value
G1 E-.9 F1800
G1 X100 Y108 F18000
M73 P19 R4
G1 E.9 F1800
G1 F1200
G1 X120 Y108 E.92643
G1 F6420
G1 X160 Y108 E1.85285
G1 F1200
G1 X180 Y108 E.92643
SET_PRESSURE_ADVANCE ADVANCE=0.028; Override pressure advance value
M73 P20 R3
G1 E-.9 F1800
G1 X100 Y111.5 F18000
G1 E.9 F1800
G1 F1200
G1 X120 Y111.5 E.92643
G1 F6420
G1 X160 Y111.5 E1.85285
M73 P21 R3
G1 F1200
G1 X180 Y111.5 E.92643
SET_PRESSURE_ADVANCE ADVANCE=0.03; Override pressure advance value
G1 E-.9 F1800
G1 X100 Y115 F18000
G1 E.9 F1800
G1 F1200
G1 X120 Y115 E.92643
M73 P22 R3
G1 F6420
G1 X160 Y115 E1.85285
G1 F1200
G1 X180 Y115 E.92643
SET_PRESSURE_ADVANCE ADVANCE=0.032; Override pressure advance value
G1 E-.9 F1800
G1 X100 Y118.5 F18000
G1 E.9 F1800
G1 F1200
G1 X120 Y118.5 E.92643
M73 P23 R3
G1 F6420
G1 X160 Y118.5 E1.85285
G1 F1200
G1 X180 Y118.5 E.92643
SET_PRESSURE_ADVANCE ADVANCE=0.034; Override pressure advance value
G1 E-.9 F1800
G1 X100 Y122 F18000
M73 P24 R3
G1 E.9 F1800
G1 F1200
G1 X120 Y122 E.92643
G1 F6420
G1 X160 Y122 E1.85285
G1 F1200
G1 X180 Y122 E.92643
SET_PRESSURE_ADVANCE ADVANCE=0.036; Override pressure advance value
M73 P25 R3
G1 E-.9 F1800
G1 X100 Y125.5 F18000
G1 E.9 F1800
G1 F1200
G1 X120 Y125.5 E.92643
G1 F6420
G1 X160 Y125.5 E1.85285
G1 F1200
G1 X180 Y125.5 E.92643
SET_PRESSURE_ADVANCE ADVANCE=0.038; Override pressure advance value
M73 P26 R3
G1 E-.9 F1800
G1 X100 Y129 F18000
G1 E.9 F1800
G1 F1200
G1 X120 Y129 E.92643
G1 F6420
G1 X160 Y129 E1.85285
M73 P27 R3
G1 F1200
G1 X180 Y129 E.92643
SET_PRESSURE_ADVANCE ADVANCE=0.04; Override pressure advance value
G1 E-.9 F1800
G1 X100 Y132.5 F18000
G1 E.9 F1800
G1 F1200
G1 X120 Y132.5 E.92643
M73 P28 R3
G1 F6420
G1 X160 Y132.5 E1.85285
G1 F1200
G1 X180 Y132.5 E.92643
SET_PRESSURE_ADVANCE ADVANCE=0.042; Override pressure advance value
G1 E-.9 F1800
G1 X100 Y136 F18000
M73 P29 R3
G1 E.9 F1800
G1 F1200
G1 X120 Y136 E.92643
G1 F6420
G1 X160 Y136 E1.85285
G1 F1200
G1 X180 Y136 E.92643
SET_PRESSURE_ADVANCE ADVANCE=0.044; Override pressure advance value
G1 E-.9 F1800
G1 X100 Y139.5 F18000
M73 P30 R3
G1 E.9 F1800
G1 F1200
G1 X120 Y139.5 E.92643
G1 F6420
G1 X160 Y139.5 E1.85285
G1 F1200
G1 X180 Y139.5 E.92643
SET_PRESSURE_ADVANCE ADVANCE=0.046; Override pressure advance value
M73 P31 R3
G1 E-.9 F1800
G1 X100 Y143 F18000
G1 E.9 F1800
G1 F1200
G1 X120 Y143 E.92643
G1 F6420
G1 X160 Y143 E1.85285
M73 P32 R3
G1 F1200
G1 X180 Y143 E.92643
SET_PRESSURE_ADVANCE ADVANCE=0.048; Override pressure advance value
G1 E-.9 F1800
G1 X100 Y146.5 F18000
G1 E.9 F1800
G1 F1200
G1 X120 Y146.5 E.92643
M73 P33 R3
G1 F6420
G1 X160 Y146.5 E1.85285
G1 F1200
G1 X180 Y146.5 E.92643
SET_PRESSURE_ADVANCE ADVANCE=0.05; Override pressure advance value
G1 E-.9 F1800
G1 X100 Y150 F18000
G1 E.9 F1800
G1 F1200
G1 X120 Y150 E.92643
M73 P34 R3
G1 F6420
G1 X160 Y150 E1.85285
G1 F1200
G1 X180 Y150 E.92643
SET_PRESSURE_ADVANCE ADVANCE=0.052; Override pressure advance value
G1 E-.9 F1800
G1 X100 Y153.5 F18000
M73 P35 R3
G1 E.9 F1800
G1 F1200
G1 X120 Y153.5 E.92643
G1 F6420
G1 X160 Y153.5 E1.85285
G1 F1200
G1 X180 Y153.5 E.92643
SET_PRESSURE_ADVANCE ADVANCE=0.054; Override pressure advance value
M73 P36 R3
G1 E-.9 F1800
G1 X100 Y157 F18000
G1 E.9 F1800
G1 F1200
G1 X120 Y157 E.92643
G1 F6420
G1 X160 Y157 E1.85285
G1 F1200
G1 X180 Y157 E.92643
SET_PRESSURE_ADVANCE ADVANCE=0.056; Override pressure advance value
M73 P37 R3
G1 E-.9 F1800
G1 X100 Y160.5 F18000
G1 E.9 F1800
G1 F1200
G1 X120 Y160.5 E.92643
G1 F6420
G1 X160 Y160.5 E1.85285
M73 P38 R3
G1 F1200
G1 X180 Y160.5 E.92643
SET_PRESSURE_ADVANCE ADVANCE=0.058; Override pressure advance value
G1 E-.9 F1800
G1 X100 Y164 F18000
G1 E.9 F1800
G1 F1200
G1 X120 Y164 E.92643
M73 P39 R3
G1 F6420
G1 X160 Y164 E1.85285
G1 F1200
G1 X180 Y164 E.92643
SET_PRESSURE_ADVANCE ADVANCE=0.06; Override pressure advance value
G1 E-.9 F1800
G1 X100 Y167.5 F18000
M73 P40 R3
G1 E.9 F1800
G1 F1200
G1 X120 Y167.5 E.92643
M73 P40 R2
G1 F6420
G1 X160 Y167.5 E1.85285
G1 F1200
G1 X180 Y167.5 E.92643
SET_PRESSURE_ADVANCE ADVANCE=0.062; Override pressure advance value
G1 E-.9 F1800
G1 X100 Y171 F18000
M73 P41 R2
G1 E.9 F1800
G1 F1200
G1 X120 Y171 E.92643
G1 F6420
G1 X160 Y171 E1.85285
G1 F1200
G1 X180 Y171 E.92643
SET_PRESSURE_ADVANCE ADVANCE=0.064; Override pressure advance value
M73 P42 R2
G1 E-.9 F1800
G1 X100 Y174.5 F18000
G1 E.9 F1800
G1 F1200
G1 X120 Y174.5 E.92643
G1 F6420
G1 X160 Y174.5 E1.85285
M73 P43 R2
G1 F1200
G1 X180 Y174.5 E.92643
SET_PRESSURE_ADVANCE ADVANCE=0.066; Override pressure advance value
G1 E-.9 F1800
G1 X100 Y178 F18000
G1 E.9 F1800
G1 F1200
G1 X120 Y178 E.92643
M73 P44 R2
G1 F6420
G1 X160 Y178 E1.85285
G1 F1200
G1 X180 Y178 E.92643
SET_PRESSURE_ADVANCE ADVANCE=0.068; Override pressure advance value
G1 E-.9 F1800
G1 X100 Y181.5 F18000
G1 E.9 F1800
G1 F1200
G1 X120 Y181.5 E.92643
M73 P45 R2
G1 F6420
G1 X160 Y181.5 E1.85285
G1 F1200
G1 X180 Y181.5 E.92643
SET_PRESSURE_ADVANCE ADVANCE=0.07; Override pressure advance value
G1 E-.9 F1800
G1 X100 Y185 F18000
M73 P46 R2
G1 E.9 F1800
G1 F1200
G1 X120 Y185 E.92643
G1 F6420
G1 X160 Y185 E1.85285
G1 F1200
G1 X180 Y185 E.92643
SET_PRESSURE_ADVANCE ADVANCE=0.072; Override pressure advance value
M73 P47 R2
G1 E-.9 F1800
G1 X100 Y188.5 F18000
G1 E.9 F1800
G1 F1200
G1 X120 Y188.5 E.92643
G1 F6420
G1 X160 Y188.5 E1.85285
G1 F1200
G1 X180 Y188.5 E.92643
SET_PRESSURE_ADVANCE ADVANCE=0.074; Override pressure advance value
M73 P48 R2
G1 E-.9 F1800
G1 X100 Y192 F18000
G1 E.9 F1800
G1 F1200
G1 X120 Y192 E.92643
G1 F6420
G1 X160 Y192 E1.85285
M73 P49 R2
G1 F1200
G1 X180 Y192 E.92643
SET_PRESSURE_ADVANCE ADVANCE=0.076; Override pressure advance value
G1 E-.9 F1800
G1 X100 Y195.5 F18000
G1 E.9 F1800
G1 F1200
G1 X120 Y195.5 E.92643
M73 P50 R2
G1 F6420
G1 X160 Y195.5 E1.85285
G1 F1200
G1 X180 Y195.5 E.92643
SET_PRESSURE_ADVANCE ADVANCE=0.078; Override pressure advance value
G1 E-.9 F1800
G1 X100 Y199 F18000
M73 P51 R2
G1 E.9 F1800
G1 F1200
G1 X120 Y199 E.92643
G1 F6420
G1 X160 Y199 E1.85285
G1 F1200
G1 X180 Y199 E.92643
SET_PRESSURE_ADVANCE ADVANCE=0.08; Override pressure advance value
G1 E-.9 F1800
G1 X100 Y202.5 F18000
M73 P52 R2
G1 E.9 F1800
G1 F1200
G1 X120 Y202.5 E.92643
G1 F6420
G1 X160 Y202.5 E1.85285
G1 F1200
G1 X180 Y202.5 E.92643
SET_PRESSURE_ADVANCE ADVANCE=0.082; Override pressure advance value
M73 P53 R2
G1 E-.9 F1800
G1 X100 Y206 F18000
G1 E.9 F1800
G1 F1200
G1 X120 Y206 E.92643
G1 F6420
G1 X160 Y206 E1.85285
M73 P54 R2
G1 F1200
G1 X180 Y206 E.92643
SET_PRESSURE_ADVANCE ADVANCE=0.084; Override pressure advance value
G1 E-.9 F1800
G1 X100 Y209.5 F18000
G1 E.9 F1800
G1 F1200
G1 X120 Y209.5 E.92643
M73 P55 R2
G1 F6420
G1 X160 Y209.5 E1.85285
G1 F1200
G1 X180 Y209.5 E.92643
SET_PRESSURE_ADVANCE ADVANCE=0.086; Override pressure advance value
G1 E-.9 F1800
G1 X100 Y213 F18000
G1 E.9 F1800
G1 F1200
G1 X120 Y213 E.92643
M73 P56 R2
G1 F6420
G1 X160 Y213 E1.85285
G1 F1200
G1 X180 Y213 E.92643
SET_PRESSURE_ADVANCE ADVANCE=0.088; Override pressure advance value
G1 E-.9 F1800
G1 X100 Y216.5 F18000
M73 P57 R2
G1 E.9 F1800
G1 F1200
G1 X120 Y216.5 E.92643
G1 F6420
G1 X160 Y216.5 E1.85285
G1 F1200
G1 X180 Y216.5 E.92643
SET_PRESSURE_ADVANCE ADVANCE=0.09; Override pressure advance value
M73 P58 R2
G1 E-.9 F1800
G1 X100 Y220 F18000
G1 E.9 F1800
G1 F1200
G1 X120 Y220 E.92643
G1 F6420
G1 X160 Y220 E1.85285
G1 F1200
G1 X180 Y220 E.92643
SET_PRESSURE_ADVANCE ADVANCE=0.092; Override pressure advance value
M73 P59 R2
G1 E-.9 F1800
G1 X100 Y223.5 F18000
G1 E.9 F1800
G1 F1200
G1 X120 Y223.5 E.92643
G1 F6420
G1 X160 Y223.5 E1.85285
M73 P60 R1
G1 F1200
G1 X180 Y223.5 E.92643
SET_PRESSURE_ADVANCE ADVANCE=0.094; Override pressure advance value
G1 E-.9 F1800
G1 X100 Y227 F18000
G1 E.9 F1800
G1 F1200
G1 X120 Y227 E.92643
M73 P61 R1
G1 F6420
G1 X160 Y227 E1.85285
G1 F1200
G1 X180 Y227 E.92643
SET_PRESSURE_ADVANCE ADVANCE=0.096; Override pressure advance value
G1 E-.9 F1800
G1 X100 Y230.5 F18000
M73 P62 R1
G1 E.9 F1800
G1 F1200
G1 X120 Y230.5 E.92643
G1 F6420
G1 X160 Y230.5 E1.85285
G1 F1200
G1 X180 Y230.5 E.92643
SET_PRESSURE_ADVANCE ADVANCE=0.098; Override pressure advance value
G1 E-.9 F1800
G1 X100 Y234 F18000
M73 P63 R1
G1 E.9 F1800
G1 F1200
G1 X120 Y234 E.92643
G1 F6420
G1 X160 Y234 E1.85285
G1 F1200
G1 X180 Y234 E.92643
SET_PRESSURE_ADVANCE ADVANCE=0; Override pressure advance value
M73 P64 R1
G1 F6420
G1 E-.9 F1800
G1 X120 Y236 F18000
G1 E.9 F1800
G1 X120 Y241 E.23112
G1 E-.9 F1800
G1 X160 Y241 F18000
G1 E.9 F1800
G1 X160 Y236 E.23112
G1 F3600
G1 E-.9 F1800
G1 X183 Y64.25 F18000
M73 P65 R1
G1 E.9 F1800
G1 X185 Y64.25 E.07269
G1 X185 Y60.25 E.14537
G1 X183 Y60.25 E.07269
G1 X183 Y64.01 E.14537
G1 F3600
G1 E-.9 F1800
G1 X183 Y71.25 F18000
G1 E.9 F1800
G1 X185 Y71.25 E.07269
G1 X185 Y67.25 E.14537
G1 X183 Y67.25 E.07269
G1 X183 Y71.01 E.14537
M73 P66 R1
G1 E-.9 F1800
G1 X187 Y67.25 F18000
G1 E.9 F1800
G1 X187 Y68.25 E.07269
G1 E-.9 F1800
G1 X189 Y71.25 F18000
G1 E.9 F1800
G1 X191 Y71.25 E.07269
G1 X191 Y67.25 E.14537
G1 X189 Y67.25 E.07269
G1 X189 Y71.01 E.14537
G1 E-.9 F1800
G1 X192 Y71.25 F18000
G1 E.9 F1800
G1 X194 Y71.25 E.07269
G1 X194 Y67.25 E.14537
G1 X192 Y67.25 E.07269
G1 X192 Y71.01 E.14537
G1 E-.9 F1800
G1 X195 Y71.25 F18000
G1 E.9 F1800
G1 X195 Y69.25 E.07269
G1 X197 Y69.25 E.07269
G1 E-.9 F1800
M73 P67 R1
G1 X197 Y71.25 F18000
G1 E.9 F1800
G1 X197 Y67.25 E.14537
G1 F3600
G1 E-.9 F1800
G1 X183 Y78.25 F18000
G1 E.9 F1800
G1 X185 Y78.25 E.07269
G1 X185 Y74.25 E.14537
G1 X183 Y74.25 E.07269
G1 X183 Y78.01 E.14537
G1 E-.9 F1800
G1 X187 Y74.25 F18000
G1 E.9 F1800
G1 X187 Y75.25 E.07269
G1 E-.9 F1800
G1 X189 Y78.25 F18000
G1 E.9 F1800
G1 X191 Y78.25 E.07269
G1 X191 Y74.25 E.14537
G1 X189 Y74.25 E.07269
G1 X189 Y78.01 E.14537
M73 P68 R1
G1 E-.9 F1800
G1 X192 Y78.25 F18000
G1 E.9 F1800
G1 X194 Y78.25 E.07269
G1 X194 Y74.25 E.14537
G1 X192 Y74.25 E.07269
G1 X192 Y78.01 E.14537
G1 E-.9 F1800
G1 X197 Y76.25 F18000
G1 E.9 F1800
G1 X195 Y76.25 E.07269
G1 X195 Y74.25 E.07269
G1 X197 Y74.25 E.07269
G1 X197 Y78.25 E.14537
G1 X195 Y78.25 E.07269
G1 X195 Y76.25 E.07269
G1 F3600
G1 E-.9 F1800
G1 X183 Y85.25 F18000
G1 E.9 F1800
G1 X185 Y85.25 E.07269
G1 X185 Y81.25 E.14537
G1 X183 Y81.25 E.07269
G1 X183 Y85.01 E.14537
M73 P69 R1
G1 E-.9 F1800
G1 X187 Y81.25 F18000
G1 E.9 F1800
G1 X187 Y82.25 E.07269
G1 E-.9 F1800
G1 X189 Y85.25 F18000
G1 E.9 F1800
G1 X191 Y85.25 E.07269
G1 X191 Y81.25 E.14537
G1 X189 Y81.25 E.07269
G1 X189 Y85.01 E.14537
G1 E-.9 F1800
G1 X193 Y85.25 F18000
G1 E.9 F1800
G1 X193 Y81.25 E.14537
G1 E-.9 F1800
G1 X195 Y85.25 F18000
G1 E.9 F1800
G1 X197 Y85.25 E.07269
G1 X197 Y83.25 E.07269
G1 X195 Y83.25 E.07269
G1 X195 Y81.25 E.07269
G1 X197 Y81.25 E.07269
M73 P70 R1
G1 F3600
G1 E-.9 F1800
G1 X183 Y92.25 F18000
G1 E.9 F1800
G1 X185 Y92.25 E.07269
G1 X185 Y88.25 E.14537
G1 X183 Y88.25 E.07269
G1 X183 Y92.01 E.14537
G1 E-.9 F1800
G1 X187 Y88.25 F18000
G1 E.9 F1800
G1 X187 Y89.25 E.07269
G1 E-.9 F1800
G1 X189 Y92.25 F18000
G1 E.9 F1800
G1 X191 Y92.25 E.07269
G1 X191 Y88.25 E.14537
G1 X189 Y88.25 E.07269
G1 X189 Y92.01 E.14537
G1 E-.9 F1800
G1 X193 Y92.25 F18000
G1 E.9 F1800
G1 X193 Y88.25 E.14537
M73 P71 R1
G1 E-.9 F1800
G1 X197 Y92.25 F18000
G1 E.9 F1800
G1 X195 Y92.25 E.07269
G1 X195 Y88.25 E.14537
G1 X197 Y88.25 E.07269
G1 X197 Y90.25 E.07269
G1 X195 Y90.25 E.07269
G1 F3600
G1 E-.9 F1800
G1 X183 Y99.25 F18000
G1 E.9 F1800
G1 X185 Y99.25 E.07269
G1 X185 Y95.25 E.14537
G1 X183 Y95.25 E.07269
G1 X183 Y99.01 E.14537
G1 E-.9 F1800
G1 X187 Y95.25 F18000
G1 E.9 F1800
G1 X187 Y96.25 E.07269
G1 E-.9 F1800
G1 X189 Y99.25 F18000
G1 E.9 F1800
G1 X191 Y99.25 E.07269
M73 P72 R1
G1 X191 Y95.25 E.14537
G1 X189 Y95.25 E.07269
G1 X189 Y99.01 E.14537
G1 E-.9 F1800
G1 X192 Y99.25 F18000
G1 E.9 F1800
G1 X194 Y99.25 E.07269
G1 X194 Y97.25 E.07269
G1 X192 Y97.25 E.07269
G1 X192 Y95.25 E.07269
G1 X194 Y95.25 E.07269
G1 F3600
G1 E-.9 F1800
G1 X183 Y106.25 F18000
G1 E.9 F1800
G1 X185 Y106.25 E.07269
G1 X185 Y102.25 E.14537
G1 X183 Y102.25 E.07269
G1 X183 Y106.01 E.14537
G1 E-.9 F1800
G1 X187 Y102.25 F18000
G1 E.9 F1800
M73 P73 R1
G1 X187 Y103.25 E.07269
G1 E-.9 F1800
G1 X189 Y106.25 F18000
G1 E.9 F1800
G1 X191 Y106.25 E.07269
G1 X191 Y102.25 E.14537
G1 X189 Y102.25 E.07269
G1 X189 Y106.01 E.14537
G1 E-.9 F1800
G1 X192 Y106.25 F18000
G1 E.9 F1800
G1 X194 Y106.25 E.07269
G1 X194 Y104.25 E.07269
G1 X192 Y104.25 E.07269
G1 X192 Y102.25 E.07269
